src/assets/svg/icons/fa/nuevos/classic/thin/ballot-check classic thin.svg

<svg xmlns="http://www.w3.org/2000/svg" viewBox="0 0 448 512"><path d="M384 0H64C28.66 0 0 28.66 0 64v384c0 35.34 28.66 64 64 64h320c35.34 0 64-28.66 64-64V64C448 28.66 419.3 0 384 0zM432 448c0 26.47-21.53 48-48 48H64c-26.47 0-48-21.53-48-48V64c0-26.47 21.53-48 48-48h320c26.47 0 48 21.53 48 48V448zM376 120h-176C195.6 120 192 123.6 192 128s3.594 8 8 8h176C380.4 136 384 132.4 384 128S380.4 120 376 120zM376 248h-176C195.6 248 192 251.6 192 256s3.594 8 8 8h176C380.4 264 384 260.4 384 256S380.4 248 376 248zM376 376h-176C195.6 376 192 379.6 192 384s3.594 8 8 8h176c4.406 0 8-3.578 8-8S380.4 376 376 376zM88 168h16c17.67 0 32-14.33 32-32v-16c0-17.67-14.33-32-32-32h-16c-17.67 0-32 14.33-32 32v16C56 153.7 70.33 168 88 168zM72 120c0-8.822 7.176-16 16-16h16c8.824 0 16 7.178 16 16v16c0 8.822-7.176 16-16 16h-16c-8.824 0-16-7.178-16-16V120zM104 344h-16c-17.67 0-32 14.33-32 32v16c0 17.67 14.33 32 32 32h16c17.67 0 32-14.33 32-32v-16C136 358.3 121.7 344 104 344zM120 392c0 8.822-7.176 16-16 16h-16c-8.824 0-16-7.178-16-16v-16c0-8.822 7.176-16 16-16h16c8.824 0 16 7.178 16 16V392zM154.3 210.3L96 268.7L69.66 242.3c-3.125-3.125-8.188-3.125-11.31 0s-3.125 8.188 0 11.31l32 32C91.91 287.2 93.94 288 96 288s4.094-.7813 5.656-2.344l64-64c3.125-3.125 3.125-8.188 0-11.31S157.5 207.2 154.3 210.3z"/></svg>

<svg xmlns="http://www.w3.org/2000/svg" viewBox="0 0 448 512"><!--! Font Awesome Pro 6.4.0 by @fontawesome - https://fontawesome.com License - https://fontawesome.com/license (Commercial License) Copyright 2023 Fonticons, Inc. --><path d="M384 16c26.5 0 48 21.5 48 48V448c0 26.5-21.5 48-48 48H64c-26.5 0-48-21.5-48-48V64c0-26.5 21.5-48 48-48H384zM64 0C28.7 0 0 28.7 0 64V448c0 35.3 28.7 64 64 64H384c35.3 0 64-28.7 64-64V64c0-35.3-28.7-64-64-64H64zM192 128c0 4.4 3.6 8 8 8H376c4.4 0 8-3.6 8-8s-3.6-8-8-8H200c-4.4 0-8 3.6-8 8zm0 128c0 4.4 3.6 8 8 8H376c4.4 0 8-3.6 8-8s-3.6-8-8-8H200c-4.4 0-8 3.6-8 8zm0 128c0 4.4 3.6 8 8 8H376c4.4 0 8-3.6 8-8s-3.6-8-8-8H200c-4.4 0-8 3.6-8 8zm-56-8c0-17.7-14.3-32-32-32H88c-17.7 0-32 14.3-32 32v16c0 17.7 14.3 32 32 32h16c17.7 0 32-14.3 32-32V376zm-64 0c0-8.8 7.2-16 16-16h16c8.8 0 16 7.2 16 16v16c0 8.8-7.2 16-16 16H88c-8.8 0-16-7.2-16-16V376zM88 88c-17.7 0-32 14.3-32 32v16c0 17.7 14.3 32 32 32h16c17.7 0 32-14.3 32-32V120c0-17.7-14.3-32-32-32H88zm0 16h16c8.8 0 16 7.2 16 16v16c0 8.8-7.2 16-16 16H88c-8.8 0-16-7.2-16-16V120c0-8.8 7.2-16 16-16zm69.7 125.7c3.1-3.1 3.1-8.2 0-11.3s-8.2-3.1-11.3 0L96 268.7 69.7 242.3c-3.1-3.1-8.2-3.1-11.3 0s-3.1 8.2 0 11.3l32 32c3.1 3.1 8.2 3.1 11.3 0l56-56z"/></svg>
